X: 4
T: The Tolka
R: polka
M: 2/4
L: 1/8
K: Ador
|:AB cg | de cA | B/c/B/A/ Gd | AB GE |
AB cg | de cA | B/c/B/A/ Gd |1 BA e/d/c/B/ :|2 BA A2 ||
|: de fa | ga fd | g/f/e/d/ cd/c/ | B/A/G c/B/A/G/ |
AB cg | de cA | B/c/B/A/ Gd | BA A2 :|
M: 5/8
efg fd | efg fd |
M: 3/4
f/g/f/e/ dc Bd |
dc/B/ cg | de cA | B/c/B/A/ Gd |1 BA A2 :|2 BA e/d/cB/ ||
AB cg | de cA | B/c/B/A/ Gd | AB Gd |
dc/B/ cg |de cA | B/c/B/A/ Gd |1 BA e/d/c/B/ :|2 BA A2 ||
de fa | ga fd | g/f/e/d/ cd/c/ | B/A/G Bd |
dc/B/ cg | de cA | B/c/B/A/ Gd |BA A2 :|
M: 5/8
efg fd | efg fd |
M: 3/4
f/g/f/e/ dc Bd |
dc/B/ cg | de cA | B/c/B/A/ Gd |1 BA A2 :|2 BA e/d/c/B/ ||


Tune 1251	Setting 14562

